icons/desktop/12/svg/paw-print-12.svg

<svg width="12" height="12" viewBox="0 0 12 12" fill="none" xmlns="http://www.w3.org/2000/svg">
<g clip-path="url(#clip0_8069_32462)">
<path fill-rule="evenodd" clip-rule="evenodd" d="M6 4.00098C6.87014 4.00098 7.64942 4.52169 8.00488 5.31641C8.36326 6.11721 8.85713 6.8465 9.46094 7.46875L9.9043 7.92578L10.04 8.0791C10.3368 8.45081 10.4999 8.91352 10.5 9.39258V9.40039C10.4998 10.3029 9.87111 11.0796 9.00391 11.2793L8.82715 11.3115C7.77233 11.4526 6.81913 11.5 6 11.5C4.95425 11.5 3.99915 11.4229 3.15332 11.3086C2.19354 11.1783 1.50018 10.3497 1.5 9.40234C1.5 8.85096 1.71298 8.31996 2.0957 7.92578L2.53906 7.46875L2.76074 7.23047C3.26467 6.66313 3.68154 6.01711 3.99512 5.31641C4.35058 4.52169 5.12986 4.00098 6 4.00098ZM6 5.25098C5.68348 5.25098 5.3829 5.41713 5.20508 5.69922L5.13672 5.82715C4.71913 6.76027 4.14263 7.61115 3.43652 8.33887L2.99219 8.79688L2.99121 8.7959C2.83818 8.95368 2.75 9.17192 2.75 9.40234C2.75018 9.74271 2.99931 10.0256 3.32129 10.0693C4.11744 10.177 5.01579 10.25 6 10.25C6.77087 10.25 7.66795 10.2051 8.66113 10.0723C8.99748 10.0268 9.24979 9.73717 9.25 9.40039V9.39258C9.2499 9.17061 9.16335 8.95721 9.00781 8.79688L8.56348 8.33984C7.94553 7.70299 7.42704 6.97094 7.02734 6.17285L6.86328 5.82715C6.70269 5.46801 6.36176 5.25098 6 5.25098Z" fill="black"/>
<path d="M1.125 4C1.74632 4 2.25 4.67157 2.25 5.5C2.25 6.32843 1.74632 7 1.125 7C0.50368 7 0 6.32843 0 5.5C0 4.67157 0.50368 4 1.125 4Z" fill="black"/>
<path d="M10.875 4C11.4963 4 12 4.67157 12 5.5C12 6.32843 11.4963 7 10.875 7C10.2537 7 9.75 6.32843 9.75 5.5C9.75 4.67157 10.2537 4 10.875 4Z" fill="black"/>
<path d="M4.125 0.5C4.74632 0.5 5.25 1.17157 5.25 2C5.25 2.82843 4.74632 3.5 4.125 3.5C3.50368 3.5 3 2.82843 3 2C3 1.17157 3.50368 0.5 4.125 0.5Z" fill="black"/>
<path d="M7.875 0.5C8.49632 0.5 9 1.17157 9 2C9 2.82843 8.49632 3.5 7.875 3.5C7.25368 3.5 6.75 2.82843 6.75 2C6.75 1.17157 7.25368 0.5 7.875 0.5Z" fill="black"/>
</g>
<defs>
<clipPath id="clip0_8069_32462">
<rect width="12" height="12" fill="white"/>
</clipPath>
</defs>
</svg>

<!-- This Source Code Form is subject to the terms of the Mozilla Public
   - License, v. 2.0. If a copy of the MPL was not distributed with this
   - file, You can obtain one at http://mozilla.org/MPL/2.0/. -->
<svg xmlns="http://www.w3.org/2000/svg" width="12" height="12" fill="context-fill" fill-opacity="context-fill-opacity" viewBox="0 0 12 12">
    <g clip-path="url(#clip0_8069_32462)">
        <path fill-rule="evenodd" d="M6 4.001c.87 0 1.65.52 2.005 1.315.358.801.852 1.53 1.456 2.153l.443.457.136.153c.297.372.46.835.46 1.314V9.4c0 .903-.629 1.68-1.496 1.88l-.177.032a21.3 21.3 0 0 1-5.674-.003A1.92 1.92 0 0 1 1.5 9.402c0-.551.213-1.082.596-1.476l.443-.457.222-.239a7.5 7.5 0 0 0 1.234-1.914A2.2 2.2 0 0 1 6 4.001m0 1.25a.94.94 0 0 0-.795.448l-.068.128a8.7 8.7 0 0 1-1.7 2.512l-.445.458v-.001a.87.87 0 0 0-.242.606c0 .34.25.624.571.667a20 20 0 0 0 5.34.003.68.68 0 0 0 .589-.672v-.007a.86.86 0 0 0-.242-.596l-.445-.457a8.7 8.7 0 0 1-1.536-2.167l-.164-.346A.95.95 0 0 0 6 5.251" clip-rule="evenodd" />
        <path d="M1.125 4c.621 0 1.125.672 1.125 1.5S1.746 7 1.125 7 0 6.328 0 5.5.504 4 1.125 4M10.875 4C11.496 4 12 4.672 12 5.5S11.496 7 10.875 7 9.75 6.328 9.75 5.5 10.254 4 10.875 4M4.125.5C4.746.5 5.25 1.172 5.25 2s-.504 1.5-1.125 1.5S3 2.828 3 2 3.504.5 4.125.5M7.875.5C8.496.5 9 1.172 9 2s-.504 1.5-1.125 1.5S6.75 2.828 6.75 2 7.254.5 7.875.5" />
    </g>
</svg>
